X: 1
T: Marko Ska\vce [D]
O: Slovenia
Z: 2008 John Chambers <jc@trillian.mit.edu>
M: 2/4
L: 1/8
K: D
| "D"[D4D4] | [D4D4] | [D4D4] | [D4D4] \
[| "D"[FD][AF] [AF][AF] | [FD][AF] [AF][AF] |
| [FD][FD] "A7"[EA,][EC] | "D"[D2D2] [D2D2] \
|: "D"[D2D2] "A7"[E2C2] | "D"[FD][AF] [AF]z \
| "D"[FD][FD] "A7"[EA,][EC] | "D"[D2D2] [D2D2] :|
